svg/Pictogram/pictograms-nps-water-fish_ladder.svg

<svg xmlns="http://www.w3.org/2000/svg" viewBox="0 0 256 256"><path d="m0 0c-.54 0-.979-.44-.979-.981v-7.522c0-.54.439-.979.979-.979h7.522c.541 0 .98.439.98.979v7.522c0 .541-.439.981-.98.981h-7.522" fill="#fff" transform="matrix(25.90307 0 0-25.90307 30.553 5.189)"/><path d="m0 0c.652 0 1.18.527 1.18 1.18v7.521c0 .653-.528 1.182-1.18 1.182h-7.522c-.651 0-1.18-.529-1.18-1.182v-7.521c0-.653.529-1.18 1.18-1.18h7.522" transform="matrix(25.90307 0 0-25.90307 225.41 256)"/><g fill="#fff"><path d="m0 0c.225 0 .406-.182.406-.406l.002-.584c0-.629.509-1.139 1.138-1.139h.955c.225 0 .408-.184.408-.408v-.584c0-.629.51-1.139 1.139-1.139h.963c.224 0 .408-.181.408-.408v-1.125h.73v1.125c0 .629-.509 1.139-1.138 1.139l-.957.002c-.225 0-.407.181-.407.406l-.007.584c0 .629-.51 1.139-1.139 1.139h-.955c-.227 0-.408.183-.408.408l-.002.584c0 .627-.507 1.136-1.136 1.136h-1.271v-.728l1.271-.002" transform="matrix(25.90307 0 0-25.90307 55.899 83.02)"/><path d="m0 0c.104 0 .19.083.19.188 0 .106-.086.189-.19.189-.104 0-.188-.083-.188-.189 0-.105.084-.188.188-.188m-.799.417c-.015.016-.025.037-.025.062 0 .04.027.073.062.084.264.067 1.403.346 2.826-.714l.582.099.583-.801-.383-.068c.572-.848.564-1.945.517-2.383l.604-.982c.006-.001.008-.02.008-.031 0-.043-.036-.077-.077-.077-.013 0-.027.004-.039.012l-.843.361-.844-.361c-.012-.008-.026-.012-.039-.012-.043 0-.076.034-.076.077 0 .011.002.021.006.031l.605.982c0 1.032-1.17 1.504-1.477 1.606-.607.205-1.99 1.097-2.283 1.842-.004.009-.008.025-.008.037 0 .048.039.088.088.088.024 0 .039-.004.059-.02l.392-.289c.001-.008.022-.014.036-.014.027 0 .05.022.05.049 0 .016-.007.029-.019.039l-.305.383z" transform="matrix(25.90307 0 0-25.90307 124.93 45.968)"/></g></svg>

<?xml version="1.0" encoding="UTF-8" standalone="no"?>
<!-- Created with Inkscape (http://www.inkscape.org/) -->
<svg
   xmlns:dc="http://purl.org/dc/elements/1.1/"
   xmlns:cc="http://creativecommons.org/ns#"
   xmlns:rdf="http://www.w3.org/1999/02/22-rdf-syntax-ns#"
   xmlns:svg="http://www.w3.org/2000/svg"
   xmlns="http://www.w3.org/2000/svg"
   xmlns:sodipodi="http://sodipodi.sourceforge.net/DTD/sodipodi-0.dtd"
   xmlns:inkscape="http://www.inkscape.org/namespaces/inkscape"
   width="256"
   height="256"
   id="svg5294"
   sodipodi:version="0.32"
   inkscape:version="0.46"
   version="1.0"
   sodipodi:docname="pictograms-nps-water-fish_ladder-2.svg"
   inkscape:output_extension="org.inkscape.output.svg.inkscape">
  <defs
     id="defs5296">
    <inkscape:perspective
       sodipodi:type="inkscape:persp3d"
       inkscape:vp_x="0 : 526.18109 : 1"
       inkscape:vp_y="0 : 1000 : 0"
       inkscape:vp_z="744.09448 : 526.18109 : 1"
       inkscape:persp3d-origin="372.04724 : 350.78739 : 1"
       id="perspective5302" />
  </defs>
  <sodipodi:namedview
     id="base"
     pagecolor="#ffffff"
     bordercolor="#666666"
     borderopacity="1.0"
     gridtolerance="10000"
     guidetolerance="10"
     objecttolerance="10"
     inkscape:pageopacity="0.0"
     inkscape:pageshadow="2"
     inkscape:zoom="1.4"
     inkscape:cx="77.203796"
     inkscape:cy="112.12174"
     inkscape:document-units="px"
     inkscape:current-layer="layer1"
     showgrid="false"
     inkscape:window-width="747"
     inkscape:window-height="674"
     inkscape:window-x="0"
     inkscape:window-y="309" />
  <metadata
     id="metadata5299">
    <rdf:RDF>
      <cc:Work
         rdf:about="">
        <dc:format>image/svg+xml</dc:format>
        <dc:type
           rdf:resource="http://purl.org/dc/dcmitype/StillImage" />
      </cc:Work>
    </rdf:RDF>
  </metadata>
  <g
     inkscape:label="Layer 1"
     inkscape:groupmode="layer"
     id="layer1">
    <g
       id="g4564"
       transform="matrix(25.903066,0,0,-25.903066,30.55277,5.1886949)">
      <path
         d="M 0,0 C -0.54,0 -0.979,-0.44 -0.979,-0.981 L -0.979,-8.503 C -0.979,-9.043 -0.54,-9.482 0,-9.482 L 7.522,-9.482 C 8.063,-9.482 8.502,-9.043 8.502,-8.503 L 8.502,-0.981 C 8.502,-0.44 8.063,0 7.522,0 L 0,0 z"
         style="fill:#ffffff;fill-opacity:1;fill-rule:nonzero;stroke:none"
         id="path4566" />
    </g>
    <g
       id="g4568"
       transform="matrix(25.903066,0,0,-25.903066,225.40848,256)">
      <path
         d="M 0,0 C 0.652,0 1.18,0.527 1.18,1.18 L 1.18,8.701 C 1.18,9.354 0.652,9.883 0,9.883 L -7.522,9.883 C -8.173,9.883 -8.702,9.354 -8.702,8.701 L -8.702,1.18 C -8.702,0.527 -8.173,0 -7.522,0 L 0,0 z"
         style="fill:#000000;fill-opacity:1;fill-rule:nonzero;stroke:none"
         id="path4570" />
    </g>
    <g
       id="g4572"
       transform="matrix(25.903066,0,0,-25.903066,55.899023,83.024921)">
      <path
         d="M 0,0 C 0.225,0 0.406,-0.182 0.406,-0.406 L 0.408,-0.99 C 0.408,-1.619 0.917,-2.129 1.546,-2.129 L 2.501,-2.129 C 2.726,-2.129 2.909,-2.313 2.909,-2.537 L 2.909,-3.121 C 2.909,-3.75 3.419,-4.26 4.048,-4.26 L 5.011,-4.26 C 5.235,-4.26 5.419,-4.441 5.419,-4.668 L 5.419,-5.793 L 6.149,-5.793 L 6.149,-4.668 C 6.149,-4.039 5.64,-3.529 5.011,-3.529 L 4.054,-3.527 C 3.829,-3.527 3.647,-3.346 3.647,-3.121 L 3.64,-2.537 C 3.64,-1.908 3.13,-1.398 2.501,-1.398 L 1.546,-1.398 C 1.319,-1.398 1.138,-1.215 1.138,-0.99 L 1.136,-0.406 C 1.136,0.221 0.629,0.73 0,0.73 L -1.271,0.73 L -1.271,0.002 L 0,0 z"
         style="fill:#ffffff;fill-opacity:1;fill-rule:nonzero;stroke:none"
         id="path4574" />
    </g>
    <g
       id="g4576"
       transform="matrix(25.903066,0,0,-25.903066,124.93318,45.967581)">
      <path
         d="M 0,0 C 0.104,0 0.19,0.083 0.19,0.188 C 0.19,0.294 0.104,0.377 0,0.377 C -0.104,0.377 -0.188,0.294 -0.188,0.188 C -0.188,0.083 -0.104,0 0,0 M -0.799,0.417 C -0.814,0.433 -0.824,0.454 -0.824,0.479 C -0.824,0.519 -0.797,0.552 -0.762,0.563 C -0.498,0.63 0.641,0.909 2.064,-0.151 L 2.646,-0.052 L 3.229,-0.853 L 2.846,-0.921 C 3.418,-1.769 3.41,-2.866 3.363,-3.304 L 3.967,-4.286 C 3.973,-4.296 3.975,-4.306 3.975,-4.317 C 3.975,-4.36 3.939,-4.394 3.898,-4.394 C 3.885,-4.394 3.871,-4.39 3.859,-4.382 L 3.016,-4.021 L 2.172,-4.382 C 2.16,-4.39 2.146,-4.394 2.133,-4.394 C 2.09,-4.394 2.057,-4.36 2.057,-4.317 C 2.057,-4.306 2.059,-4.296 2.063,-4.286 L 2.668,-3.304 C 2.668,-2.272 1.498,-1.8 1.191,-1.698 C 0.584,-1.493 -0.799,-0.601 -1.092,0.144 C -1.096,0.153 -1.1,0.169 -1.1,0.181 C -1.1,0.229 -1.061,0.269 -1.012,0.269 C -0.988,0.269 -0.973,0.265 -0.953,0.249 L -0.561,-0.04 C -0.551,-0.048 -0.539,-0.054 -0.525,-0.054 C -0.498,-0.054 -0.475,-0.032 -0.475,-0.005 C -0.475,0.011 -0.482,0.024 -0.494,0.034 L -0.799,0.417 z"
         style="fill:#ffffff;fill-opacity:1;fill-rule:nonzero;stroke:none"
         id="path4578" />
    </g>
  </g>
</svg>
